local/share/icons/dracula-icons-main/24/places/folder-image.svg

<?xml version="1.0" encoding="UTF-8"?>
<svg xmlns="http://www.w3.org/2000/svg" xmlns:xlink="http://www.w3.org/1999/xlink" width="24" height="24" viewBox="0 0 24 24">
<path fill-rule="nonzero" fill="rgb(100%, 100%, 100%)" fill-opacity="1" d="M 7 5 C 5.890625 5 5 5.890625 5 7 L 5 17 C 5 18.109375 5.890625 19 7 19 L 17 19 C 18.109375 19 19 18.109375 19 17 L 19 7 C 19 5.890625 18.109375 5 17 5 Z M 7 7 L 17 7 L 17 17 L 7 17 Z M 10 10.5 L 8 15 C 8 15.554688 8.359375 16 8.800781 16 L 15.199219 16 C 15.640625 16 16 15.554688 16 15 L 14.398438 11.558594 L 12.800781 14 Z M 10 10.5 "/>
</svg>

<svg width="24" height="24" version="1.1" viewBox="0 0 24 24" xmlns="http://www.w3.org/2000/svg">
 <defs>
  <style id="current-color-scheme" type="text/css">.ColorScheme-Text { color:#FFFFFF; } .ColorScheme-Highlight { color:#5294e2; }</style>
 </defs>
 <path d="m7 5c-1.108 0-2 0.892-2 2v10c0 1.108 0.892 2 2 2h10c1.108 0 2-0.892 2-2v-10c0-1.108-0.892-2-2-2zm0 2h10v10h-10zm3 3.5-2 4.5c0 0.554 0.35758 1 0.80078 1h6.3984c0.4432 0 0.80078-0.446 0.80078-1l-1.5996-3.4395-1.5996 2.4395z" class="ColorScheme-Text" fill="currentColor"/>
</svg>
